apps/symbolic/builder-symbolic.svg

<svg xmlns="http://www.w3.org/2000/svg" viewBox="0 0 24 24">
  <path fill="#bebebe" d="M8 3a2 2 0 0 0-2 2v4a2 2 0 0 1-2 2H3v2h1a2 2 0 0 1 2 2v4a2 2 0 0 0 2 2h2v-2H8v-5a2 2 0 0 0-2-2 2 2 0 0 0 2-2V5h2V3m6 0a2 2 0 0 1 2 2v4a2 2 0 0 0 2 2h1v2h-1a2 2 0 0 0-2 2v4a2 2 0 0 1-2 2h-2v-2h2v-5a2 2 0 0 1 2-2 2 2 0 0 1-2-2V5h-2V3h2z"/>
</svg>

<?xml version="1.0" encoding="UTF-8" standalone="no"?>
<svg
   xmlns:dc="http://purl.org/dc/elements/1.1/"
   xmlns:cc="http://creativecommons.org/ns#"
   xmlns:rdf="http://www.w3.org/1999/02/22-rdf-syntax-ns#"
   xmlns:svg="http://www.w3.org/2000/svg"
   xmlns="http://www.w3.org/2000/svg"
   xmlns:sodipodi="http://sodipodi.sourceforge.net/DTD/sodipodi-0.dtd"
   xmlns:inkscape="http://www.inkscape.org/namespaces/inkscape"
   version="1.1"
   width="24"
   height="24"
   viewBox="0 0 24 24"
   id="svg2"
   inkscape:version="0.91 r13725"
   sodipodi:docname="builder-symbolic.svg">
  <metadata
     id="metadata10">
    <rdf:RDF>
      <cc:Work
         rdf:about="">
        <dc:format>image/svg+xml</dc:format>
        <dc:type
           rdf:resource="http://purl.org/dc/dcmitype/StillImage" />
      </cc:Work>
    </rdf:RDF>
  </metadata>
  <defs
     id="defs8" />
  <sodipodi:namedview
     pagecolor="#ffffff"
     bordercolor="#666666"
     borderopacity="1"
     objecttolerance="10"
     gridtolerance="10"
     guidetolerance="10"
     inkscape:pageopacity="0"
     inkscape:pageshadow="2"
     inkscape:window-width="640"
     inkscape:window-height="480"
     id="namedview6"
     showgrid="false"
     inkscape:zoom="25.291667"
     inkscape:cx="5.0411862"
     inkscape:cy="12"
     inkscape:current-layer="svg2" />
  <path
     d="M8,3A2,2 0 0,0 6,5V9A2,2 0 0,1 4,11H3V13H4A2,2 0 0,1 6,15V19A2,2 0 0,0 8,21H10V19H8V14A2,2 0 0,0 6,12A2,2 0 0,0 8,10V5H10V3M16,3A2,2 0 0,1 18,5V9A2,2 0 0,0 20,11H21V13H20A2,2 0 0,0 18,15V19A2,2 0 0,1 16,21H14V19H16V14A2,2 0 0,1 18,12A2,2 0 0,1 16,10V5H14V3H16Z"
     id="path4"
     style="fill:#bebebe;fill-opacity:1" />
</svg>
